X: 11365
T: Earl The Breakfast Boiler
R: jig
M: 6/8
K: Amixolydian
|:ABc cBA|BEE EFG|Bee dee|AGF FED|
ABc cBA|BEE EFA|Bee dee|AGF FED:|
|:ABc cBA|Bee edB|f2e dee|dBf fed|
ABc cBA|Bee edB|f2e dfg|fea afd:|
|:aea e2a|eag fed|gee efg|aff fed|
aea e2a|eag fga|beg e2f|dfa afd:|

